www/images/check.svg

<svg fill="none" height="75" viewBox="0 0 75 75" width="75" xmlns="http://www.w3.org/2000/svg"><g clip-rule="evenodd" fill="#fff" fill-rule="evenodd"><path d="m28.4063 63.2401c.7844.8016 2.0746.8016 2.859 0l41.035-41.9365c.7607-.7774.7607-2.0202 0-2.7976l-5.7778-5.9048c-.7845-.8016-2.0746-.8016-2.859 0l-41.035 41.9365c-.7607.7774-.7607 2.0202-.0001 2.7976z"/><path d="m37.0431 57.3353c.7607-.7774.7607-2.0202 0-2.7976l-24.8358-25.3813c-.7844-.8017-2.0745-.8017-2.85894 0l-5.77787 5.9048c-.76068.7773-.76068 2.0201 0 2.7975l24.83581 25.3814c.7844.8016 2.0746.8016 2.859 0z"/></g></svg>

<svg width="75" height="75" viewBox="0 0 75 75" fill="none" xmlns="http://www.w3.org/2000/svg">
<path fill-rule="evenodd" clip-rule="evenodd" d="M28.4063 63.2401C29.1907 64.0417 30.4809 64.0417 31.2653 63.2401L72.3003 21.3036C73.061 20.5262 73.061 19.2834 72.3003 18.506L66.5225 12.6012C65.738 11.7996 64.4479 11.7996 63.6635 12.6012L22.6285 54.5377C21.8678 55.3151 21.8678 56.5579 22.6284 57.3353L28.4063 63.2401Z" fill="white"/>
<path fill-rule="evenodd" clip-rule="evenodd" d="M37.0431 57.3353C37.8038 56.5579 37.8038 55.3151 37.0431 54.5377L12.2073 29.1564C11.4229 28.3547 10.1328 28.3547 9.34836 29.1564L3.57049 35.0612C2.80981 35.8385 2.80981 37.0813 3.57049 37.8587L28.4063 63.2401C29.1907 64.0417 30.4809 64.0417 31.2653 63.2401L37.0431 57.3353Z" fill="white"/>
</svg>
